images/ICONOS/PORQUE/BANDERIN.svg

<svg width="22" height="22" viewBox="0 0 22 22" fill="none" xmlns="http://www.w3.org/2000/svg">
<path d="M2.07076 2.58511C2.68349 2.17865 3.26214 1.76367 3.87029 1.39844C5.08919 0.665356 6.39592 0.169871 7.82649 0.0356907C9.11945 -0.0853986 10.3751 0.110963 11.6064 0.483394C12.9518 0.890516 14.2802 1.35458 15.6327 1.73683C17.3903 2.23363 19.1545 2.24148 20.9009 1.63996C21.2817 1.50905 21.6165 1.60527 21.8321 1.87821C22.051 2.15574 22.055 2.47973 21.8492 2.83973C20.6303 4.96959 18.7875 6.31728 16.486 7.07066C15.119 7.51836 13.7336 7.90912 12.3666 8.35617C10.2997 9.0323 8.47854 10.1051 7.02634 11.7519C6.36905 12.4974 5.79891 13.3045 5.31397 14.1704C5.26548 14.2562 5.25761 14.391 5.28383 14.4885C5.84937 16.6118 6.42475 18.7319 6.98964 20.8552C7.03617 21.0313 7.06173 21.2309 7.027 21.4063C6.95622 21.7657 6.6338 21.9987 6.28058 22C5.91097 22.0013 5.60887 21.7637 5.50139 21.3723C5.26613 20.5135 5.03742 19.6535 4.80609 18.7934C3.22217 12.9176 1.63824 7.04251 0.0595603 1.16542C0.0123768 0.988697 -0.0184236 0.790372 0.0123768 0.614302C0.0752882 0.257579 0.397054 0.0154001 0.748964 0.00754565C1.10415 -0.000308797 1.41478 0.215034 1.51963 0.575029C1.68805 1.1556 1.83877 1.74076 1.99736 2.32395C2.02095 2.4097 2.0452 2.49544 2.07076 2.58511ZM4.66127 12.2062C4.71369 12.1459 4.73728 12.1237 4.75498 12.0975C6.58268 9.38379 9.12208 7.65974 12.2349 6.73226C13.3784 6.3919 14.5252 6.06136 15.6622 5.69875C16.8635 5.31584 17.9913 4.7837 18.9487 3.94131C19.0483 3.85361 19.142 3.75804 19.2698 3.6363C19.1564 3.6363 19.1001 3.63172 19.0444 3.63695C17.5371 3.77572 16.0718 3.55514 14.638 3.10612C13.4918 2.74744 12.3581 2.34555 11.2093 1.99603C9.69287 1.53458 8.1594 1.4148 6.61676 1.88999C5.14293 2.34424 3.88863 3.17681 2.70511 4.13637C2.56029 4.25353 2.53932 4.35825 2.5865 4.52974C3.04392 6.19947 3.49282 7.87181 3.94368 9.54284C4.18026 10.4193 4.41552 11.2937 4.66127 12.2062Z" fill="black"/>
</svg>

<svg xmlns="http://www.w3.org/2000/svg" width="22" height="22" fill="none"><path fill="#000" d="M2.07 2.585c.613-.406 1.192-.821 1.8-1.187C5.09.665 6.396.17 7.826.036c1.293-.121 2.55.075 3.78.447 1.346.408 2.674.872 4.027 1.254 1.757.497 3.521.504 5.268-.097.38-.13.715-.035.931.238.219.278.223.602.017.962-1.219 2.13-3.061 3.477-5.363 4.23-1.367.448-2.752.84-4.12 1.286-2.066.676-3.887 1.75-5.34 3.396a13.962 13.962 0 0 0-1.712 2.418.465.465 0 0 0-.03.319c.565 2.123 1.14 4.243 1.706 6.366.046.176.072.376.037.551a.75.75 0 0 1-.746.594c-.37.001-.672-.236-.78-.628-.235-.858-.464-1.718-.695-2.579C3.222 12.918 1.638 7.043.06 1.165a1.328 1.328 0 0 1-.048-.55C.075.257.397.014.75.007a.77.77 0 0 1 .77.567c.17.58.32 1.166.478 1.749l.074.261Zm2.591 9.621c.053-.06.076-.082.094-.108 1.828-2.714 4.367-4.438 7.48-5.366 1.143-.34 2.29-.67 3.427-1.033 1.201-.383 2.33-.915 3.287-1.758.1-.087.193-.183.32-.305-.113 0-.169-.004-.225.001-1.507.139-2.972-.082-4.406-.53-1.146-.36-2.28-.761-3.429-1.111-1.516-.461-3.05-.581-4.592-.106-1.474.454-2.728 1.287-3.912 2.246-.145.118-.166.222-.119.394.458 1.67.907 3.342 1.358 5.013l.717 2.663Z"/></svg>
